F[ERK1
CUT[ES FUHR EIN FUHRKNECHT UEBERN RHEIN]
REG[Europa, Mitteleuropa, Deutschland; Frankreich, Elsass]
KEY[E0186A 08  G 2/4]
MEL[-5  1_3b_  2_5_  43b2
    -5  1_3b_  2_5_  43b2
    2  4445  3b21
    -5  1_3b_  2_5_  3b21 //] >>
FCT[erzaehlendes Volks - Lied, Sage, Familien - Geschichte, Mord]
